X:338
T:
R:polska
S:Meddelad av kyrkoherde Joneson, Fardhem.
O:Gotland, Fardhem
M:3/4
L:1/16
K:C
GFEF G2c2 c4|dcBc B2G2 G4|c2de f2ag fedc|B2ag fedc cBAG|GFEF G2c2 c4|
dcBc B2G2 G4|c2de f2ag fedc|BGAB d3c c4::B2Bd dBcA B2G2|GBdB GBdB G4|
c2ce gefd d2c2|cege cege c4|f2fe fgaf d2d2|e2ed efge c4|f2fe g2gf a2af|
edcB d4 c4:|

